Sources/FrostedUI/Resources/Icons.xcassets/dashboard12.imageset/dashboard-12.svg

<svg width="12" height="12" viewBox="0 0 12 12" fill="none" xmlns="http://www.w3.org/2000/svg" data-fui-icon="true">
  <path
    d="M5.99988 0.249878C7.33326 0.249878 8.19139 0.239224 8.9032 0.488159C10.124 0.915326 11.0844 1.8758 11.5116 3.09656C11.7606 3.80837 11.7499 4.66648 11.7499 5.99988C11.7499 7.33329 11.7605 8.19138 11.5116 8.9032C11.0844 10.124 10.124 11.0844 8.9032 11.5116C8.19138 11.7605 7.33329 11.7499 5.99988 11.7499C4.66648 11.7499 3.80837 11.7606 3.09656 11.5116C1.8758 11.0844 0.915326 10.124 0.488159 8.9032C0.239224 8.19139 0.249878 7.33326 0.249878 5.99988C0.249878 4.66648 0.2392 3.80837 0.488159 3.09656C0.915338 1.87579 1.87579 0.915338 3.09656 0.488159C3.80837 0.2392 4.66648 0.249878 5.99988 0.249878ZM5.99988 1.74988C4.54079 1.74988 4.00236 1.76049 3.59167 1.90417C2.80178 2.18059 2.18059 2.80178 1.90417 3.59167C1.76049 4.00236 1.74988 4.54079 1.74988 5.99988C1.74988 7.45892 1.76051 7.9974 1.90417 8.40808C2.18057 9.19798 2.80178 9.81916 3.59167 10.0956C4.00236 10.2393 4.54079 10.2499 5.99988 10.2499C7.45897 10.2499 7.99739 10.2393 8.40808 10.0956C9.19801 9.81917 9.81917 9.19801 10.0956 8.40808C10.2393 7.99739 10.2499 7.45897 10.2499 5.99988C10.2499 4.54079 10.2393 4.00236 10.0956 3.59167C9.81916 2.80178 9.19798 2.18057 8.40808 1.90417C7.9974 1.76051 7.45892 1.74988 5.99988 1.74988ZM7.7196 4.9696C8.01248 4.67673 8.48725 4.67678 8.78015 4.9696C9.07304 5.2625 9.07304 5.73726 8.78015 6.03015L7.38367 7.42664C6.89552 7.91474 6.10424 7.91474 5.61609 7.42664L4.74988 6.56042L4.28015 7.03015C3.98726 7.32304 3.5125 7.32304 3.2196 7.03015C2.92678 6.73725 2.92673 6.26248 3.2196 5.9696L3.86609 5.32312L3.96082 5.23718C4.45175 4.83676 5.17601 4.86557 5.63367 5.32312L6.49988 6.18933L7.7196 4.9696Z"
    fill="currentColor"
  />
</svg>

<svg xmlns="http://www.w3.org/2000/svg" width="12" height="12" fill="none" data-fui-icon="true" viewBox="0 0 12 12"><path fill="currentColor" d="M6 .25C7.333.25 8.19.24 8.903.488a4.25 4.25 0 0 1 2.609 2.609c.249.711.238 1.57.238 2.903s.01 2.191-.238 2.903a4.25 4.25 0 0 1-2.609 2.609c-.712.248-1.57.238-2.903.238-1.334 0-2.192.01-2.903-.238A4.25 4.25 0 0 1 .488 8.903C.24 8.191.25 7.333.25 6c0-1.334-.01-2.192.238-2.903A4.25 4.25 0 0 1 3.097.488C3.808.24 4.667.25 6 .25m0 1.5c-1.46 0-1.998.01-2.408.154a2.75 2.75 0 0 0-1.688 1.688C1.76 4.002 1.75 4.54 1.75 6s.01 1.997.154 2.408a2.75 2.75 0 0 0 1.688 1.688c.41.143.949.154 2.408.154s1.997-.01 2.408-.154a2.75 2.75 0 0 0 1.688-1.688c.143-.41.154-.949.154-2.408s-.01-1.998-.154-2.408a2.75 2.75 0 0 0-1.688-1.688c-.41-.143-.95-.154-2.408-.154m1.72 3.22a.75.75 0 0 1 1.06 1.06L7.384 7.427a1.25 1.25 0 0 1-1.768 0L4.75 6.56l-.47.47a.75.75 0 1 1-1.06-1.06l.646-.647.095-.086a1.25 1.25 0 0 1 1.673.086l.866.866z"/></svg>
